X: 363
T:Le villain
N: Derived from Jos2822-Le_villain.krn
C: Josquin des Prez
%%abc-version 2.0
%%abcx-abcm2ps-target-version 5.9.1 (29 Sep 2008)
%%abc-creator hum2abc beta
%%abcx-conversion-date 2019/02/12 16:15:54
%%abc-edited-by Jesse Rodin
%%abc-edited-by Will Watson 19/08/2011
%%abcx-initial-encoding-date 2011/08/19/
%%humdrum-veritas 1487299765
%%humdrum-veritas-data 49779596
%%linebreak <none>
%%barnumbers 0
L: 1/4
M: 2/1
Q: 1/2=120
%%staves [1 2 3 4]
V: 1 clef=treble
V: 2 clef=treble-8
V: 3 clef=treble-8
V: 4 clef=bass
K: C
[V:1] z8 | 
[V:2] z8 | 
[V:3] z8 | 
[V:4] A,,6B,,2 | 
[V:1] z8 | 
[V:2] z8 | 
[V:3] z4A4- | 
[V:4] C,4D,2F,2- | 
[V:1] z8 | 
[V:2] z8 | 
[V:3] A2B2c4 | 
[V:4] F,2E,D,E,4 | 
[V:1] A6B2 | 
[V:2] z8 | 
[V:3] d2f4ed | 
[V:4] D,4D,4 | 
[V:1] c4d2f2- | 
[V:2] z4A4- | 
[V:3] e4d4 | 
[V:4] A,4F,2D,2- | 
[V:1] f2ede4 | 
[V:2] A2B2c4 | 
[V:3] D4A4 | 
[V:4] D,2C,B,,A,,4 | 
[V:1] d6cB | 
[V:2] d2f4ed | 
[V:3] z8 | 
[V:4] B,,4D,4 | 
[V:1] c2A3GFE | 
[V:2] e4d2f2- | 
[V:3] z8 | 
[V:4] C,4D,4- | 
[V:1] D2d4^c2 | 
[V:2] f2ede4 | 
[V:3] z8 | 
[V:4] D,2E,F,G,2A,2 | 
[V:1] d8 | 
[V:2] d4z2D2- | 
[V:3] f6f2 | 
[V:4] D,8- | 
[V:1] z4A4 | 
[V:2] DEFGADd2- | 
[V:3] f6f2 | 
[V:4] D,8 | 
[V:1] G4F4- | 
[V:2] d2^c2d4- | 
[V:3] e4d4 | 
[V:4] z8 | 
[V:1] F2EDA4- | 
[V:2] d4z4 | 
[V:3] z2D3EFG | 
[V:4] F,6F,2 | 
[V:1] A4z4 | 
[V:2] D4F4 | 
[V:3] ADf3ed2- | 
[V:4] F,6F,2 | 
[V:1] z4f4 | 
[V:2] G4A4 | 
[V:3] d2^c2d4 | 
[V:4] E,4D,4 | 
[V:1] f2f2f4- | 
[V:2] D8 | 
[V:3] z8 | 
[V:4] z2D,3E,F,G, | 
[V:1] f2f2e4 | 
[V:2] z8 | 
[V:3] z8 | 
[V:4] A,D,D4^C2 | 
[V:1] d4z2D2- | 
[V:2] z4f4- | 
[V:3] z8 | 
[V:4] D8 | 
[V:1] DEFGADf2- | 
[V:2] f2f2f4- | 
[V:3] d3efga2 | 
[V:4] D,8 | 
[V:1] fed4^c2 | 
[V:2] f2f2e4 | 
[V:3] d2a6 | 
[V:4] z4A,4 | 
[V:1] dcBAc2B2- | 
[V:2] d4c2d2 | 
[V:3] f2g2f2g2 | 
[V:4] B,2G,2A,2G,2 | 
[V:1] BAA4^G2 | 
[V:2] c2A2B4 | 
[V:3] f2e6 | 
[V:4] A,4E,4 | 
[V:1] A8- | 
[V:2] A8- | 
[V:3] c2A2c3B | 
[V:4] A,,4z2C2- | 
[V:1] A8 | 
[V:2] A8- | 
[V:3] AGF2A3G | 
[V:4] CB,A,G,F,2A,2- | 
[V:1] z8 | 
[V:2] A8 | 
[V:3] FED2d2e2 | 
[V:4] A,G,F,E,D,2C,2 | 
[V:1] z8 | 
[V:2] z8 | 
[V:3] c2f4e2 | 
[V:4] F,4G,4 | 
[V:1] z4z2c2- | 
[V:2] z4f4- | 
[V:3] f8 | 
[V:4] F,8- | 
[V:1] cBAGF2A2- | 
[V:2] f2f2f4- | 
[V:3] z8 | 
[V:4] F,8 | 
[V:1] AGFED3C | 
[V:2] f2f2f4- | 
[V:3] z4z2D2- | 
[V:4] z8 | 
[V:1] B,A,D4C2 | 
[V:2] f2f2e4 | 
[V:3] D2F2G2A2 | 
[V:4] z8 | 
[V:1] FGABc2B2- | 
[V:2] d4c2d2 | 
[V:3] D4z4 | 
[V:4] z8 | 
[V:1] B2A4G2 | 
[V:2] c2A2B4 | 
[V:3] z8 | 
[V:4] z8 | 
[V:1] A2F4ED | 
[V:2] A8- | 
[V:3] z4z2f2- | 
[V:4] z4F,4- | 
[V:1] C2D2A,4 | 
[V:2] A4z2f2- | 
[V:3] f2edc2d2 | 
[V:4] F,2F,2F,4- | 
[V:1] z4A4- | 
[V:2] f2edc2d2 | 
[V:3] A4z2D2- | 
[V:4] F,2F,2F,4- | 
[V:1] A4G4 | 
[V:2] A4B2c2- | 
[V:3] DEF2G2C2 | 
[V:4] F,2F,2E,4 | 
[V:1] F4E2F2 | 
[V:2] c2BAc2B2- | 
[V:3] F4z2F2 | 
[V:4] D,4C,2D,2 | 
[V:1] E2F2GFED | 
[V:2] B2A4^G2 | 
[V:3] C4D4 | 
[V:4] C,2A,,2B,,4 | 
[V:1] C8 | 
[V:2] A8- | 
[V:3] E8- | 
[V:4] A,,8- | 
[V:1] z4E4- | 
[V:2] A8 | 
[V:3] E8 | 
[V:4] A,,8 | 
[V:1] E2F2G2A2 | 
[V:2] z8 | 
[V:3] E6F2 | 
[V:4] z8 | 
[V:1] BcdBc2BA | 
[V:2] z8 | 
[V:3] G4A2c2- | 
[V:4] z8 | 
[V:1] G2A4^G2 | 
[V:2] z8 | 
[V:3] c2BAB4 | 
[V:4] z8 | 
[V:1] A8 | 
[V:2] z8 | 
[V:3] A8 | 
[V:4] A,,6B,,2 | 
[V:1] z8 | 
[V:2] z4A4- | 
[V:3] z8 | 
[V:4] C,4D,2F,2- | 
[V:1] z8 | 
[V:2] A2B2c4 | 
[V:3] z8 | 
[V:4] F,2E,D,E,4 | 
[V:1] A6B2 | 
[V:2] d2f4ed | 
[V:3] z8 | 
[V:4] D,8 | 
[V:1] c4d2f2- | 
[V:2] e4d4 | 
[V:3] z4A4- | 
[V:4] A,4F,2D,2- | 
[V:1] f2ede4 | 
[V:2] D4A4 | 
[V:3] A2B2c4 | 
[V:4] D,2C,B,,A,,4 | 
[V:1] d6cB | 
[V:2] z8 | 
[V:3] d2f4ed | 
[V:4] B,,4D,4 | 
[V:1] c2A3GFE | 
[V:2] z8 | 
[V:3] e4d2f2- | 
[V:4] C,4D,4- | 
[V:1] D2d4^c2 | 
[V:2] z8 | 
[V:3] f2ede4 | 
[V:4] D,2E,F,G,2A,2 | 
[V:1] d8 | 
[V:2] f6f2 | 
[V:3] d4z2D2- | 
[V:4] D,8- | 
[V:1] z4A4 | 
[V:2] f6f2 | 
[V:3] DEFGADd2- | 
[V:4] D,8 | 
[V:1] G4F4- | 
[V:2] e4d4 | 
[V:3] d2^c2d4- | 
[V:4] z8 | 
[V:1] F2EDA4- | 
[V:2] z2D3EFG | 
[V:3] d4z4 | 
[V:4] F,6F,2 | 
[V:1] A4z4 | 
[V:2] ADf3ed2- | 
[V:3] D4F4 | 
[V:4] F,6F,2 | 
[V:1] z4f4- | 
[V:2] d2^c2d4 | 
[V:3] G4A4 | 
[V:4] E,4D,4 | 
[V:1] f2f2f4- | 
[V:2] z8 | 
[V:3] D8 | 
[V:4] z2D,3E,F,G, | 
[V:1] f2f2e4 | 
[V:2] z8 | 
[V:3] z8 | 
[V:4] A,D,D4^C2 | 
[V:1] d4z2D2- | 
[V:2] z8 | 
[V:3] z4f4- | 
[V:4] D8 | 
[V:1] DEFGADf2- | 
[V:2] d3efga2 | 
[V:3] f2f2f4- | 
[V:4] D,8 | 
[V:1] fed4^c2 | 
[V:2] d2a6 | 
[V:3] f2f2e4 | 
[V:4] z4A,4 | 
[V:1] dcBAc2B2- | 
[V:2] f2g2f2g2 | 
[V:3] d4c2d2 | 
[V:4] B,2G,2A,2G,2 | 
[V:1] B2A4G2 | 
[V:2] f2e6 | 
[V:3] c2A2B4 | 
[V:4] A,4E,4 | 
[V:1] A2F4ED | 
[V:2] c2d2D4 | 
[V:3] A8- | 
[V:4] F,2D,4C,B,, | 
[V:1] C8 |]  
[V:2] E8 |]  
[V:3] A8 |]  
[V:4] A,,8 |]  



